src/svg-icons/currency.svg

<svg width="24" height="24" viewBox="0 0 24 24" fill="none" xmlns="http://www.w3.org/2000/svg">
<circle cx="12" cy="12" r="12" fill="url(#paint0_linear_16_5775)"/>
<path d="M11 4H13V6H15.9522V7.82227H10.2149V11.0801H15.5403V12.9023H10.2149V16.1777H16V18H13V20H11V18H8V6H11V4Z" fill="white"/>
<defs>
<linearGradient id="paint0_linear_16_5775" x1="3.5" y1="4" x2="11.4725" y2="24.2081" gradientUnits="userSpaceOnUse">
<stop stop-color="#00D5C7"/>
<stop offset="1" stop-color="#FFEE57"/>
</linearGradient>
</defs>
</svg>

<svg width="24" height="24" fill="none" xmlns="http://www.w3.org/2000/svg">
    <circle cx="12" cy="12" r="12" fill="url(#a)"/>
    <path d="M11 4h2v2h2.952v1.822h-5.737v3.258h5.325v1.822h-5.325v3.276H16V18h-3v2h-2v-2H8V6h3V4Z" fill="#fff"/>
    <defs>
        <linearGradient id="a" x1="3.5" y1="4" x2="11.473" y2="24.208" gradientUnits="userSpaceOnUse">
            <stop stop-color="#00D5C7"/>
            <stop offset="1" stop-color="#FFEE57"/>
        </linearGradient>
    </defs>
</svg>
